X:1
T:TOURNAMENT GALOP.
T:TOURNAMENT GALOP.
T:L. M. Gottschalk.
T:1854
T:1854
T:1854
T:1854
T:1854
T:1854
T:1854
T:1854
T:1854
T:1854
T:1854
T:1854
C:L. M. Gottschalk.
Z:1854
%%score { ( 1 3 ) | 2 }
L:1/8
Q:1/4=150
M:2/4
K:Eb
V:1 treble nm="Piano" snm="Pno."
V:3 treble 
V:2 bass 
V:1
!ff!"^Con Bravura" B3 B/B/ | BBBB | B7/2[K:bass]!ff! F,,/ | B,,2 z2 |[K:treble] [Bd]3 [Bd]/[Bd]/ | %5
 [Bd][Bd][Bd][Bd] | [Bd]7/2[K:bass] F,/ | B,2 z2 |[K:treble] [df]3 [df]/[df]/ | [df][df][df][df] | %10
 [db]3 [db]/[db]/ | [db][db][db][db] | [dbd'][dbd']/[dbd']/ [dbd'][dbd'] | %13
!8va(! [fbf'][fbf']/[fbf']/ [fbf'][fbf'] | [d'f'b']!8va)!"^loco."B/B/ BB | %15
 B!8va(![bb']/[bb']/ [bb'][bb'] | [bd'b']!8va)!"^loco."B/B/ BB | B!8va(![bb']/[bb']/ [bb'][bb'] | %18
 [bb']!8va)!B/B/ BB | BB/B/ BB | BB/B/ BB | BB/B/ BB | %22
"^Con Spirito."[Q:1/4=155] B/B/[GB] B/B/[GB] | !wedge![Ee]!wedge![Gd]!wedge![^Fc]!wedge![GB] | %24
 B/B/[GB] B/B/[GB] | !wedge![Ee]!wedge![Gd]!wedge![^Fc]!wedge![GB] | %26
 B/B/B !wedge![FBf]!wedge![^FB^f] | BB/B/ !wedge![GBg]!wedge![_GB_g] | %28
 =A/A/A !wedge![FAf]!wedge![FA=e] |!<(! !wedge![F_A_e]!wedge![FAd]!wedge![FAc]!wedge![FA_c]!<)! | %30
 B/B/[GB] B/B/[GB] | !wedge![Ee]!wedge![Gd]!wedge![^Fc]!wedge![GB] | B/B/[GB] B/B/[GB] | %33
 !wedge![Ee]!wedge![Gd]!wedge![^Fc]!wedge![GB] | B/B/[GB] B/B/[_GB] | %35
 B/B/[FB] !wedge![FBf]!wedge![^FB^f] | =A/A/A !wedge![Aeg]!wedge![Aef] | %37
 [Bdb]!8va(!b'/b/ b'!8va)! z | B/B/[GB] B/B/[GB] | !wedge![Ee]!wedge![Gd]!wedge![^Fc]!wedge![GB] | %40
 B/B/[GB] B/B/[GB] | !wedge![Ee]!wedge![Gd]!wedge![^Fc]!wedge![GB] | %42
 B/B/B !wedge![FBf]!wedge![^FB^f] | BB/B/ !wedge![GBg]!wedge![_GB_g] | %44
 =A/A/A !wedge![FAf]!wedge![FA=e] |!<(! !wedge![F_A_e]!wedge![FAd]!wedge![FAc]!wedge![FA_c]!<)! | %46
 B/B/[GB] B/B/[GB] | !wedge![Ee]!wedge![Gd]!wedge![^Fc]!wedge![GB] | B/B/[GB] B/B/[GB] | %49
 !wedge![Ee]!wedge![Gd]!wedge![^Fc]!wedge![GB] | B/B/[GB] B/B/[_GB] | %51
 B/B/[FB] !wedge![FBf]!wedge![^FB^f] | =A/A/A !wedge![Aeg]!wedge![Aef] | %53
 [Bdb]!8va(!b'/b/ b'!8va)! z ||!p!!8va(! (3(a/b/a/)!wedge!f (3(f'/g'/f'/)!wedge!d' | %55
 (3(a/b/a/)!wedge!f (3(f'/g'/f'/)!wedge!d' | (3(e'/f'/e'/)!wedge!c' (3(b'/c''/b'/)!wedge!g' | %57
 (3(e'/f'/e'/)!wedge!c' (3(b/c'/b/)!wedge!g | (3(a/b/a/)!wedge!f (3(f'/g'/f'/)!wedge!d' | %59
 (3(a/b/a/)!wedge!f (3(f'/g'/f'/)!wedge!d' | (3(e'/f'/e'/)!wedge!c' (3(b'/c''/b'/)!wedge!g' | %61
 (3(e'/f'/e'/)!wedge!c' (3(b/c'/b/)!wedge!g | (3(=a/b/a/)!wedge!d (3(d'/e'/d'/)!wedge!a | %63
 (3(b/c'/b/)!wedge!g (3(g'/=a'/g'/)!wedge!d' | (3(=a'/b'/a'/)!wedge!d' (3(d''/e''/d''/)!wedge!a' | %65
 (3(b'/c''/b'/)!wedge!g' (3(g''/=a''/g''/)!wedge!=e'' | f''/=e''/_e''/d''/ c''/b'/=a'/g'/ | %67
 f'/=e'/_e'/d'/ c'/b/a/g/!8va)! | f/^f/=a/g/ f/e/d/c/ | BB/B/ BB | BB/B/ BB | BB/B/ BB | BB/B/ BB | %73
 B/B/[GB] B/B/[GB] | !wedge![Ee]!wedge![Gd]!wedge![^Fc]!wedge![GB] | B/B/[GB] B/B/[GB] | %76
 !wedge![Ee]!wedge![Gd]!wedge![^Fc]!wedge![GB] | B/B/B !wedge![FBf]!wedge![^FB^f] | %78
 BB/B/ !wedge![GBg]!wedge![_GB_g] | =A/A/A !wedge![FAf]!wedge![FA=e] | %80
!<(! !wedge![F_A_e]!wedge![FAd]!wedge![FAc]!wedge![FA_c]!<)! | B/B/[GB] B/B/[GB] | %82
 !wedge![Ee]!wedge![Gd]!wedge![^Fc]!wedge![GB] | =B/B/B B/B/B | %84
 !wedge![=B^g]!wedge![B^f]!wedge![B=e]!wedge![=c_e] | =d/d/d =cd | e/e/e [eg][fa] | %87
 [eb]/b/b [eac'][dfad'] | [ege']!8va(!e''/e'/ e''!8va)! z || %89
[K:Ab]"^Marcato.\n   con fuoco.\n"!mf! EF/E/ [=B,=D][CE] | [_DF][CE] A[CE] | !^!B2 !^!=B2 | %92
 !^!c2 !^!e2 | [Gde]f/e/ =de | [cf][ce][ce][Ac] | [Ac][FA][FA][AB] | [GB]2 !^!E2 | %97
!mf! EF/E/ [=B,=D][CE] | [_DF][CE]A[CE] | !^!B2 !^!=B2 | !^!c2 !^![Ff]2 | !^![Ff]2 !^![Ff]2 | %102
 !^![Ff]!^![=E=e]!^![_E_e]!^![=D=d] | !^![_D_d]2 !^![G,DG]2 | !^![A,CA]2 [Aca]2 | %105
"^Con molto fuoco."!fff! [Ee][Ac]/[Ac]/ [=D=d][Ee] | [Ff][Ee][Aa][=A=a] | !^![Bb]2 !^![=B=b]2 | %108
 !^![cc']2 !^![ee']2 |!8va(! [ee'][gb]/[gb]/ [=d=d'][ee'] | [ff'][ee'][ee'][cc'] | %111
 [cc'][Aa][Aa][Bb] | !^![Bb]2 !^![ee']2!8va)! |"^con molto fuoco."!fff! [Ee][Ac]/[Ac]/ [=D=d][Ee] | %114
 [Ff][Ee][Aa][=A=a] | !^![Bb]2 !^![=B=b]2 | !^![cc']2 !^![ee']2 | %117
!8va(! [ee'][gb]/[gb]/ [=d=d'][ee'] | [ff'][ee']!8va)!!8va(![aa'][bb'] | %119
"^tutta la forza." (3([c'c''][d'd''][d'd'']) (3([e'e''][f'f''][g'g'']) | %120
 [a'a'']2!8va)!"^Strepitoso."!ff! z/ z/ z/ z/ | z/ z/ z/ z/ z/ z/ z/ z/ | z/ z/ z/ z/ z/ z/ z/ z/ | %123
 z/ z/ z/ z/ z/ z/ z/ z/ | [Ee]2 z/ z/ z/ z/ | z/ z/ z/ z/ z/ z/ z/ z/ | z/ z/ z/ z/ z/ z/ z/ z/ | %127
 z/ z/ z/ z/ z/ z/ z/ z/ |!f! [ee']e/e/"^Animato." ee | ee/e/ ee | e[Ee][Ee][Ee] | %131
 [Ee][Ee][Ee][Ee] |"^con molto fuoco."!fff! [Ee][Ac]/[Ac]/ [=D=d][Ee] | [Aa][Ee][Aa][=A=a] | %134
 !^![Bb]2 !^![=B=b]2 | !^![cc']2 !^![ee']2 |!8va(! [ee'][gb]/[gb]/ [=d=d'][ee'] | %137
 [ff'][ee'][ee'][cc'] | [cc'][Aa][Aa][Bb] | !^![Bb]2 !^![ee']2!8va)! | %140
"^con molto fuoco."!fff! [Ee][Ac]/[Ac]/ [=D=d][Ee] | [Ff][Ee][Aa][=A=a] | !^![Bb]2 !^![=B=b]2 | %143
 !^![cc']2 !^![ee']2 |!fff!!8va(! [ee'][gb]/[gb]/ [=d=d'][ee'] | [ff'][ee'][aa'][bb'] | %146
"^tutta la forza." (3([c'c''][d'd''][d'd'']) (3([e'e''][f'f''][g'g'']) | %147
 [a'a'']2 [ac'e'a']2!8va)! || %148
[K:Eb]!ff!"^Animato con Spirito." [eb]/B/!wedge![eb] [eb]/B/!wedge![eb] | %149
 !wedge![ee']!wedge![dd']!wedge![cc']!wedge![Bb] |!ff! [eb]/B/!wedge![eb] [eb]/B/!wedge![eb] | %151
 !wedge![ee']!wedge![dd']!wedge![cc']!wedge![Bb] | [fb]/B/!wedge![fb] !wedge![fbf']!wedge![^f^f'] | %153
 [eb]/B/!wedge![eb] !wedge![gbg']!wedge![_g_g'] | %154
 [e=a]/=A/!wedge![ea] !wedge![faf']!wedge![=e=e'] | %155
 !wedge![_e_a_e']!wedge![dd']!wedge![cac']!wedge![_c_c'] | [eb]/B/!wedge![eb] [eb]/B/!wedge![eb] | %157
 !wedge![ee']!wedge![dd']!wedge![cc']!wedge![Bb] | [eb]/B/!wedge![eb] [eb]/B/!wedge![eb] | %159
 !wedge![ee']!wedge![dd']!wedge![cc']!wedge![Bb] | [eb]/c/!wedge![eb] [^cb]/B/!wedge![cb] | %161
 [db]/B/!wedge![db] !wedge![ff']!wedge![^f^f'] | [e=a]/=A/!wedge![ea] !wedge![gg']!wedge![ff'] | %163
 b!8va(!b'/b/ b' z!8va)! |!p!"^Leggiere."!8va(! (3(a/b/a/)!wedge!f (3(f'/g'/f'/)!wedge!d' | %165
 (3(a/b/a/)!wedge!f (3(f'/g'/f'/)!wedge!d' | (3(e'/f'/e'/)!wedge!c' (3(b'/c''/b'/)!wedge!g' | %167
 (3(e'/f'/e'/)!wedge!c' (3(b/c'/b/)!wedge!g |!p! (3(a/b/a/)!wedge!f (3(f'/g'/f'/)!wedge!d' | %169
 (3(a/b/a/)!wedge!f (3(f'/g'/f'/)!wedge!d' | (3(e'/f'/e'/)!wedge!c' (3(b'/c''/b'/)!wedge!g' | %171
 (3(e'/f'/e'/)!wedge!c' (3(b/c'/b/)!wedge!g | (3(=a/b/a/)!wedge!d (3(d'/e'/d'/)!wedge!a | %173
 (3(b/c'/b/)!wedge!g (3(g'/=a'/g'/)!wedge!d' | (3(=a'/b'/a'/)!wedge!d' (3(d''/e''/d''/)!wedge!a' | %175
 (3(b'/c''/b'/)!wedge!g' (3(g''/=a''/g''/)!wedge!=e'' | f''/=e''/_e''/d''/ c''/b'/=a'/g'/ | %177
 f'/=e'/_e'/d'/ c'/b/a/g/!8va)! | f/^f/=a/g/ f/e/d/c/ | !fermata!B z/ z/ z/ z/ z/ z/ | %180
 z/ z/ z/ z/ z/ z/ z/ z/ |"^Strepitoso."!<(! z/ z/ z/ z/ z/ z/ z/ z/ | %182
 z/ z/ z/ z/ z/ z/ z/ z/!<)! |"^Marcato il canto.\n   tutta la forza  possible.\n" [Bb]2 [=A=a]2 | %184
 [cc']2 [Bb]2 | [gg']2 [ff']2 | [ff']2 [ee']2 | [Bb]2 [=A=a]2 | [cc']2 [Bb]2 | %189
!8va(! [aa']2 [gg']2 | [=e=e']2 [ff']2!8va)! | [=c=c']2 [=B=b]2 | [_d_d']2 [cc']2 | %193
!8va(! [ff']2 [=e=e']2 | [gg']2 [ff']2 | [ff']2 [ee']2 | [ee']2 [dd']2 | [c'c'']2 [bb']2 | %198
 !fermata![e'g'b'e'']!ff! z/ z/ z/ z/ z/ z/ | z/ z/ z/ z/ z/ z/ z/ z/ | %200
 z/ z/ z/ z/ z/ z/ z/ z/!8va)! | [f=ac']/c/[fac'] [_abd']/d/[abd'] | %202
 !fermata![egbe']!ff!!8va(! z/ z/ z/ z/ z/ z/ | z/ z/ z/ z/ z/ z/ z/ z/ | z/ z/ z/ z/ z/ z/ z/ z/ | %205
 z/ z/ z/ z/ z/ z/ z/ z/ | [^d^f=b^d']3!8va)! =B/B/ | =BBBB | =B^FBF | =B2!8va(! [=fbd'=f']2 | %210
 [gb_e'g']3!8va)! e/e/ | eeee | eBeB | e2!8va(! [g=bd'g']2 |!ff! [c'e'g'c'']2 z2 | [bd'f'b']2 z2 | %216
 [be'g'b']2 z2 | [g'b'e''g'']2 z2 | [egbe']2!8va)! z2 |] %219
V:2
 B,3 B,/B,/ | B,B,B,B, | B,7/2 F,,,/ | B,,,2 z2 | [B,F]3 [B,F]/[B,F]/ | [B,F][B,F][B,F][B,F] | %6
 [B,F]7/2 [F,,,F,,]/ | [B,,,B,,]2 z2 |[K:treble] [B,FB]3 [B,FB]/[B,FB]/ | %9
[K:bass] [B,DB][B,DB][B,DB][B,DB] |[K:bass] [G,DG][G,DG][G,DG][G,DG] | [G,DG][G,DG][G,DG][G,DG] | %12
 [F,B,F]"^cres."[F,B,F][F,B,F][F,B,F] | [D,F,D][D,F,D][D,F,D][D,F,D] | [B,,B,]B,/B,/ B,B, | %15
 B,[B,,,B,,]/[B,,,B,,]/ [B,,,B,,][B,,,B,,] | [B,,B,]B,/B,/ B,B, | %17
 B,[B,,,B,,]/[B,,,B,,]/ [B,,,B,,][B,,,B,,] | [B,,,B,,]2"^leggiero." z2 |[K:treble] [FA]2 z2 | %20
 [EG]2 z2 | [B,F]2 z2 |[K:bass] !wedge!E,!wedge![B,E]!wedge!E,!wedge![B,E] | %23
 !wedge!E,!wedge![B,E]!wedge![=A,E]!wedge![B,E] | !wedge!E,!wedge![B,E]!wedge!E,!wedge![B,E] | %25
 !wedge!E,!wedge![B,E]!wedge![=A,E]!wedge![B,E] | %26
 !wedge!B,,!wedge![A,B,D]!wedge![A,B,D]!wedge![A,B,D] | %27
 !wedge!E,!wedge![B,E]!wedge![B,E]!wedge![B,E] | !wedge!F,!wedge![A,C]!wedge![A,C]!wedge![A,C] | %29
 [B,,B,][=B,,=B,][C,C][D,D] | !wedge!E,!wedge![B,E]!wedge!E,!wedge![B,E] | %31
 !wedge!E,!wedge![B,E]!wedge![=A,E]!wedge![B,E] | !wedge!E,!wedge![B,E]!wedge!E,!wedge![B,E] | %33
 !wedge!E,!wedge![B,E]!wedge![=A,E]!wedge![B,E] | !wedge!E,!wedge![B,E]!wedge!=E,!wedge![B,^C=E] | %35
 !wedge!F,!wedge![B,D]!wedge![B,D]!wedge![B,D] | F,[CE][CE][CE] | [B,D]2 [B,,,B,,]2 | %38
 !wedge!E,!wedge![B,E]!wedge!E,!wedge![B,E] | !wedge!E,!wedge![B,E]!wedge![=A,E]!wedge![B,E] | %40
 !wedge!E,!wedge![B,E]!wedge!E,!wedge![B,E] | !wedge!E,!wedge![B,E]!wedge![=A,E]!wedge![B,E] | %42
 !wedge!B,,!wedge![A,B,D]!wedge![A,B,D]!wedge![A,B,D] | %43
 !wedge!E,!wedge![B,E]!wedge![B,E]!wedge![B,E] | !wedge!F,!wedge![A,C]!wedge![A,C]!wedge![A,C] | %45
 [B,,B,][=B,,=B,][C,C][D,D] | !wedge!E,!wedge![B,E]!wedge!E,!wedge![B,E] | %47
 !wedge!E,!wedge![B,E]!wedge![=A,E]!wedge![B,E] | !wedge!E,!wedge![B,E]!wedge!E,!wedge![B,E] | %49
 !wedge!E,!wedge![B,E]!wedge![=A,E]!wedge![B,E] | !wedge!E,!wedge![B,E]!wedge!=E,!wedge![B,^C=E] | %51
 !wedge!F,!wedge![B,D]!wedge![B,D]!wedge![B,D] | F,[CE][CE][CE] | [B,D]2 [B,,,B,,]2 || %54
"^con Grazia." !wedge!F,!wedge![A,B,D] !wedge!B,,!wedge![A,B,D] | %55
 !wedge!F,!wedge![A,B,D] !wedge!B,,!wedge![A,B,D] | !wedge!E,!wedge![EG] !wedge!A,!wedge![EG] | %57
 !wedge!E,!wedge![EG] !wedge!A,!wedge![EG] | !wedge!F,!wedge![A,B,D] !wedge!B,,!wedge![A,B,D] | %59
 !wedge!F,!wedge![A,B,D] !wedge!B,,!wedge![A,B,D] | !wedge!E,!wedge![EG] !wedge!A,!wedge![EG] | %61
 !wedge!E,!wedge![EG] !wedge!A,!wedge![EG] | !wedge!^F,!wedge![CD] !wedge!D,!wedge![CD] | %63
 !wedge!G,!wedge![B,D] !wedge!D,!wedge![B,D] | !wedge!^F,!wedge![CD] !wedge!D,!wedge![CD] | %65
 !wedge!G,!wedge![B,D] !wedge!=E,!wedge![B,^C=E] | %66
"^Brilliante." !wedge!!^!F,!wedge![DF]!wedge!!^!^F,!wedge![DF] | %67
 !wedge!!^!G,!wedge![DF]!wedge!!^!^G,!wedge![DF] | !wedge!=A,!wedge![CEF]!wedge!F,!wedge![CEF] | %69
 B,2 z2 |[K:treble] [FA]2 z2 | [EG]2 z2 | [B,F]2 z2 | %73
[K:bass] !wedge!E,!wedge![B,E]!wedge!E,!wedge![B,E] | %74
 !wedge!E,!wedge![B,E]!wedge![=A,E]!wedge![B,E] | !wedge!E,!wedge![B,E]!wedge!E,!wedge![B,E] | %76
 !wedge!E,!wedge![B,E]!wedge![=A,E]!wedge![B,E] | %77
 !wedge!B,,!wedge![A,B,D]!wedge![A,B,D]!wedge![A,B,D] | %78
 !wedge!E,!wedge![B,E]!wedge![B,E]!wedge![B,E] | !wedge!F,!wedge![A,C]!wedge![A,C]!wedge![A,C] | %80
 [B,,B,][=B,,=B,][C,C][D,D] | !wedge!E,!wedge![B,E]!wedge!E,!wedge![B,E] | %82
 !wedge!E,!wedge![B,E]!wedge![=A,E]!wedge![B,E] | !wedge!^G,!wedge![=E^G]!wedge!^F,!wedge![^D^F] | %84
 !wedge!=E,!wedge!=B,!wedge!^G!wedge!A | !wedge!B,!wedge![FB]!wedge![F=A]!wedge![FB] | %86
 !wedge!B,!wedge![EG]!wedge![EG]!wedge![EG] |[K:bass] [B,,B,][A,B,D][A,B,D][A,B,D] | %88
 [E,G,B,E]2 [E,,E,]2 ||[K:Ab] A,,[E,A,][E,A,][E,A,] | A,,[E,A,]A,,[E,A,] | %91
 !^!E,[G,B,]!^!=D,[G,=B,] | !^!C,[G,C]!^!=A,,[E,^F,=A,] | B,,[E,G,D][E,G,D][E,G,D] | %94
 A,,[E,A,C][E,A,C][E,A,C] | B,,[A,B,=D][A,B,D][A,B,D] | E,[G,B,_D][G,B,D][G,B,D] | %97
 A,,[E,A,][E,A,][E,A,] | A,,[E,A,]A,,[E,A,] | E,[G,B,]=D,[G,=B,] | C,[G,C]=A,,[^F,=A,] | %101
 B,,[F,B,]C,[F,C] | D,[F,B,][F,B,][F,B,] | E,,E,[B,,E,][B,,E,] | [A,,E,]2 [A,,,A,,]2 | %105
 A,,[E,A,C][E,A,C][E,A,C] | A,,[E,A,C][E,A,C][E,A,C] | !^!E,[G,B,]!^!=D,[G,=B,] | %108
 !^!C,[G,C]!^!=A,,[^F,=A,] | B,,[E,G,D][E,G,D][E,G,D] | A,,[E,A,C][E,A,C][E,A,C] | %111
 B,,[A,B,D][A,B,D][A,B,D] | E,[G,B,D][G,B,D][G,B,D] | A,,[E,A,C][E,A,C][E,A,C] | %114
 A,,[E,A,C][E,A,C][E,A,C] | !^!E,[G,B,]!^!=D,[G,=B,] | !^!C,[G,C]!^!=A,,[E,^F,=A,] | %117
 B,,[E,G,D][E,G,D][E,G,D] | C,[E,A,C]F,[A,B,=D] | E,[A,CE] [G,B,E]2 | %120
 [A,,C,E,A,]2 [A,,,A,,]/[I:staff -1][A,A]/[I:staff +1][=A,,,=A,,]/[I:staff -1][=A,=A]/ | %121
[I:staff +1] [B,,,B,,]/[I:staff -1][B,B]/[I:staff +1][_C,,_C,]/[I:staff -1][_C_c]/[I:staff +1] [A,,,A,,]/[I:staff -1][A,A]/[I:staff +1][=A,,,=A,,]/[I:staff -1][=A,=A]/ | %122
[I:staff +1] [B,,,B,,]/[I:staff -1][B,B]/[I:staff +1][_C,,_C,]/[I:staff -1][_C_c]/[I:staff +1] [A,,,A,,]/[I:staff -1][A,A]/[I:staff +1][=A,,,=A,,]/[I:staff -1][=A,=A]/ | %123
[I:staff +1] [B,,,B,,]/[I:staff -1][B,B]/[I:staff +1][_C,,_C,]/[I:staff -1][_C_c]/[I:staff +1] [D,,D,]/[I:staff -1][Dd]/[I:staff +1][=D,,=D,]/[I:staff -1][=D=d]/ | %124
[I:staff +1] [E,,E,]2 [A,,A,]/[I:staff -1][Aa]/[I:staff +1][=A,,=A,]/[I:staff -1][=A=a]/ | %125
[I:staff +1] [B,,B,]/[I:staff -1][Bb]/[I:staff +1][_C,_C]/[I:staff -1][_c_c']/[I:staff +1] [A,,A,]/[I:staff -1][Aa]/[I:staff +1][=A,,=A,]/[I:staff -1][=A=a]/ | %126
[I:staff +1] [B,,B,]/[I:staff -1][Bb]/[I:staff +1][_C,_C]/[I:staff -1][_c_c']/[I:staff +1] [A,,A,]/[I:staff -1][Aa]/[I:staff +1][=A,,=A,]/[I:staff -1][=A=a]/ | %127
[I:staff +1] [B,,B,]/[I:staff -1][Bb]/[I:staff +1][_C,_C]/[I:staff -1][_c_c']/[I:staff +1] [D,D]/[I:staff -1][dd']/[I:staff +1][=D,=D]/[I:staff -1][=d=d']/ | %128
[I:staff +1] [C,C]EEE | EEEE | !^![E,E] z !^![D,D] z | !^![C,C] z !^![B,,B,] z | %132
 A,,[E,A,C][E,A,C][E,A,C] | A,,[E,A,C][E,A,C][E,A,C] | !^!E,[G,B,]!^!=D,[G,=B,] | %135
 !^!C,[E,G,C]!^!=A,,[E,^F,=A,] | B,,[E,G,D][E,G,D][E,G,D] | A,,[E,A,C][E,A,C][E,A,C] | %138
 B,,[A,B,D][A,B,D][A,B,D] | E,[G,B,D][G,B,D][G,B,D] | A,,[E,A,C][E,A,C][E,A,C] | %141
 A,,[E,A,C][E,A,C][E,A,C] | !^!E,[G,B,]!^!=D,[G,=B,] | !^!C,[E,G,C]!^!=A,,[E,^F,=A,] | %144
 B,,[E,G,D][E,G,D][E,G,D] | C,[E,A,C]F,[A,B,=D] | E,[A,CE] [G,B,E]2 | [A,,A,]2 [A,CEA]2 || %148
[K:Eb] !wedge!E,!wedge![B,EG]!wedge!E,!wedge![B,EG] | %149
 !wedge!E,!wedge![B,EG]!wedge![=A,E^F]!wedge![B,EG] | %150
 !wedge!E,!wedge![B,EG]!wedge!E,!wedge![B,EG] | %151
 !wedge!E,!wedge![B,EG]!wedge![=A,E^F]!wedge![B,EG] | %152
 !wedge!B,,!wedge![B,DA]!wedge![B,DA]!wedge![B,DA] | %153
 !wedge!E,!wedge![B,EG]!wedge![B,EG]!wedge![B,E_G] | %154
 !wedge![F,,F,]!wedge![=A,CF]!wedge![A,CF]!wedge![A,CF] | %155
 !wedge![B,,,B,,]!wedge![=B,,,=B,,]!wedge![C,,C,]!wedge![D,,D,] | %156
 !wedge!E,!wedge![B,EG]!wedge!E,!wedge![B,EG] | %157
 !wedge!E,!wedge![B,EG]!wedge![=A,E^F]!wedge![B,EG] | %158
 !wedge!E,!wedge![B,EG]!wedge!E,!wedge![B,EG] | %159
 !wedge!E,!wedge![B,EG]!wedge![=A,E^F]!wedge![B,EG] | %160
 !wedge!E,!wedge![B,EG]!wedge!=E,!wedge![B,^CG] | F,!wedge![B,DF]!wedge![B,DF]!wedge![B,D] | %162
 F,!wedge![CEF]!wedge![CEF]!wedge![CEF] | [B,D]2 [B,,,B,,]2 | %164
"^con Grazia." !wedge!F,!wedge![A,B,D] !wedge!B,,!wedge![A,B,D] | %165
 !wedge!F,!wedge![A,B,D] !wedge!B,,!wedge![A,B,D] | !wedge!E,!wedge![EG] !wedge!A,!wedge![EG] | %167
 !wedge!E,!wedge![EG] !wedge!A,!wedge![EG] | !wedge!F,!wedge![A,B,D]!wedge!B,,!wedge![A,B,D] | %169
 !wedge!F,!wedge![A,B,D]!wedge!B,,!wedge![A,B,D] | !wedge!E,!wedge![EG]!wedge!A,!wedge![EG] | %171
 !wedge!E,!wedge![EG]!wedge!A,!wedge![EG] | !wedge!^F,!wedge![CD]!wedge!D,!wedge![CD] | %173
 !wedge!G,!wedge![B,D]!wedge!D,!wedge![B,D] | !wedge!^F,!wedge![CD]!wedge!D,!wedge![CD] | %175
 !wedge!G,!wedge![B,D]!wedge!=E,!wedge![B,^C=E] | %176
"^Brilliante." !wedge!!^!F,!wedge![DF]!wedge!!^!^F,!wedge![DF] | %177
 !wedge!!^!G,!wedge![DF]!wedge!!^!^G,!wedge![DF] | !wedge!=A,!wedge![CEF]!wedge!F,!wedge![CEF] | %179
 [B,,B,] [B,,,B,,]/[I:staff -1][B,B]/[I:staff +1] [=A,,,=A,,]/[I:staff -1][=A,=A]/[I:staff +1][B,,,B,,]/[I:staff -1][B,B]/ | %180
[I:staff +1] [C,,C,]/[I:staff -1][_C_c]/[I:staff +1][_D,,_D,]/[I:staff -1][_D_d]/[I:staff +1] [=C,,=C,]/[I:staff -1][=C=c]/[I:staff +1][D,,D,]/[I:staff -1][Dd]/ | %181
[I:staff +1] [=D,,=D,]/[I:staff -1][=D=d]/[I:staff +1][E,,E,]/[I:staff -1][Ee]/[I:staff +1] [=E,,=E,]/[I:staff -1][=E=e]/[I:staff +1][F,,F,]/[I:staff -1][Ff]/ | %182
[I:staff +1] [^F,,^F,]/[I:staff -1][^F^f]/[I:staff +1][G,,G,]/[I:staff -1][Gg]/[I:staff +1] [A,,A,]/[I:staff -1][Aa]/[I:staff +1][=A,,=A,]/[I:staff -1][=A=a]/ | %183
"^Molto animato grandioso."[I:staff +1] [E,E][B,EG][E,E][C^DF] | [E,E][B,EG][B,EG][B,EG] | %185
 [B,,B,][A,B,D][A,B,D][A,B,D] | [E,E][G,B,E][G,B,E][G,B,E] | [E,E][B,EG][E,E][CEF] | %188
 [E,E][B,EG][B,EG][B,EG] | [E,E][B,EG][B,EG][B,EG] | [B,,B,][B,^C=E][B,,B,][B,DF] | %191
 [F,,F,][A,CF][A,CF][A,CF] | F,[A,CF][A,CF][A,CF] | [G,,G,][B,_DG][B,DG][B,DG] | %194
 [A,,A,][A,CF][A,CF][A,CF] | [=A,,=A,][_A,CF][A,CF][A,CF] | [B,,B,][A,B,F][A,B,F][A,B,F] | %197
 [B,,,B,,][A,B,F][A,B,F][A,B,F] | %198
 [E,,,E,,][K:treble] [Ee]/[I:staff -1][ee']/[I:staff +1] [Cc]/[I:staff -1][cc']/[I:staff +1][B,B]/[I:staff -1][Bb]/ | %199
[I:staff +1][K:bass] [G,G]/[I:staff -1][Gg]/[I:staff +1][F,F]/[I:staff -1][Ff]/[I:staff +1] [C,C]/[I:staff -1][Cc]/[I:staff +1][B,,B,]/[I:staff -1][B,B]/ | %200
[I:staff +1] [G,,G,]/[I:staff -1][G,G]/[I:staff +1][A,,A,]/[I:staff -1][A,A]/[I:staff +1] [=A,,=A,]/[I:staff -1][=A,=A]/[I:staff +1][B,,B,]/[I:staff -1][B,B]/ | %201
[I:staff +1] [F,,F,]2 [B,,,B,,]2 | %202
 [E,,,E,,][K:treble] [Ee]/[I:staff -1][ee']/[I:staff +1] [Cc]/[I:staff -1][cc']/[I:staff +1][B,B]/[I:staff -1][Bb]/ | %203
[I:staff +1][K:bass] [G,G]/[I:staff -1][Gg]/[I:staff +1][F,F]/[I:staff -1][Ff]/[I:staff +1] [C,C]/[I:staff -1][Cc]/[I:staff +1][B,,B,]/[I:staff -1][B,B]/ | %204
[I:staff +1] [G,,G,]/[I:staff -1][G,G]/[I:staff +1][A,,A,]/[I:staff -1][A,A]/[I:staff +1] [=A,,=A,]/[I:staff -1][=A,=A]/[I:staff +1][B,,B,]/[I:staff -1][B,B]/ | %205
[I:staff +1] [=B,,=B,]/[I:staff -1][=B,=B]/[I:staff +1][C,C]/[I:staff -1][Cc]/[I:staff +1] [^C,^C]/[I:staff -1][^C^c]/[I:staff +1][D,D]/[I:staff -1][Dd]/ | %206
[I:staff +1] [^D,^D]3 =B,/B,/ |"^Graudioso." =B,B,B,B, | =B,^F,B,F, | =B,2 [_B,,_B,]2 | %210
 [_E,,_E,]3 E/E/ | EEEE | EB,EB, | E2 [G,,G,]2 | [C,,C,]2 z2 | [D,F,B,D]2 z2 | %216
"^Ped."!ped! [E,G,B,E]2 z2 |[K:treble] [egbe']2 z2 |[K:bass] [E,,,E,,]2"^" z2!ped-up! |] %219
V:3
 x4 | x4 | x7/2[K:bass] x/ | x4 |[K:treble] x4 | x4 | x7/2[K:bass] x/ | x4 |[K:treble] x4 | x4 | %10
 x4 | x4 | x4 |!8va(! x4 | x!8va)! x3 | x!8va(! x3 | x!8va)! x3 | x!8va(! x3 | x!8va)! x3 | x4 | %20
 x4 | x4 | x4 | x4 | x4 | x4 | x4 | x4 | x4 | x4 | x4 | x4 | x4 | x4 | x4 | x4 | x4 | %37
 x!8va(! x2!8va)! x | x4 | x4 | x4 | x4 | x4 | x4 | x4 | x4 | x4 | x4 | x4 | x4 | x4 | x4 | x4 | %53
 x!8va(! x2!8va)! x ||!8va(! x4 | x4 | x4 | x4 | x4 | x4 | x4 | x4 | x4 | x4 | x4 | x4 | x4 | %67
 x4!8va)! | x4 | x4 | x4 | x4 | x4 | x4 | x4 | x4 | x4 | x4 | x4 | x4 | x4 | x4 | x4 | x4 | x4 | %85
 x4 | x4 | x4 | x!8va(! x2!8va)! x ||[K:Ab] x4 | x4 | z [EG] z [FG] | z [EG] z [^Fc] | x4 | x4 | %95
 x4 | x4 | x4 | x4 | z [EG] z [FG] | z [EG] z [=Ac] | z [Bd] z [=Ac] | x4 | x4 | x4 | x4 | x4 | %107
 z [eg] z [ef] | z [eg] z [^fc'] |!8va(! x4 | x4 | x4 | z [eg] z [gb]!8va)! | x4 | x4 | %115
 z [eg] z [ef] | z [eg] z [^fc'] |!8va(! x4 | x2!8va)!!8va(! x2 | x4 | x2!8va)! x2 | x4 | x4 | x4 | %124
 x4 | x4 | x4 | x4 | x4 | x4 | x4 | x4 | x4 | x4 | z [eg] z [ef] | z [eg] z [^fc'] |!8va(! x4 | %137
 x4 | x4 | z [eg] z [gb]!8va)! | x4 | x4 | z [eg] z [ef] | z [eg] z [fc'] |!8va(! x4 | x4 | x4 | %147
 x4!8va)! ||[K:Eb] x4 | x4 | x4 | x4 | x4 | x4 | x4 | x4 | x4 | x4 | x4 | x4 | x4 | x4 | x4 | %163
 x!8va(! x3!8va)! |!8va(! x4 | x4 | x4 | x4 | x4 | x4 | x4 | x4 | x4 | x4 | x4 | x4 | x4 | %177
 x4!8va)! | x4 | x4 | x4 | x4 | x4 | z [eg] z [e^f] | z [eg] z [eg] | z [bd'] z [bd'] | %186
 z [gb] z [gb] | z [eg] z [e^f] | z [eg] z [eg] |!8va(! z [be'] z [be'] | z [b^c'] z [bd']!8va)! | %191
 z [fa] z [fa] | z [fa] z [fa] |!8va(! z [gb] z [gb] | z [ac'] z [ac'] | z [=ac'] z [ac'] | %196
 z [_ab] z [ab] | z [d'f'] z [d'f'] | x4 | x4 | x4!8va)! | x4 | x!8va(! x3 | x4 | x4 | x4 | %206
 x3!8va)! x | x4 | x4 | x2!8va(! x2 | x3!8va)! x | x4 | x4 | x2!8va(! x2 | x4 | x4 | x4 | x4 | %218
 x2!8va)! x2 |] %219

